svg/fluentui-system-icons/ic_fluent_calendar_ltr_24_regular.svg

<svg width="24" height="24" viewBox="0 0 24 24" fill="none" xmlns="http://www.w3.org/2000/svg">
<path d="M17.75 3C19.5449 3 21 4.45507 21 6.25V17.75C21 19.5449 19.5449 21 17.75 21H6.25C4.45507 21 3 19.5449 3 17.75V6.25C3 4.45507 4.45507 3 6.25 3H17.75ZM19.5 8.5H4.5V17.75C4.5 18.7165 5.2835 19.5 6.25 19.5H17.75C18.7165 19.5 19.5 18.7165 19.5 17.75V8.5ZM7.75 14.5C8.44036 14.5 9 15.0596 9 15.75C9 16.4404 8.44036 17 7.75 17C7.05964 17 6.5 16.4404 6.5 15.75C6.5 15.0596 7.05964 14.5 7.75 14.5ZM12 14.5C12.6904 14.5 13.25 15.0596 13.25 15.75C13.25 16.4404 12.6904 17 12 17C11.3096 17 10.75 16.4404 10.75 15.75C10.75 15.0596 11.3096 14.5 12 14.5ZM7.75 10.5C8.44036 10.5 9 11.0596 9 11.75C9 12.4404 8.44036 13 7.75 13C7.05964 13 6.5 12.4404 6.5 11.75C6.5 11.0596 7.05964 10.5 7.75 10.5ZM12 10.5C12.6904 10.5 13.25 11.0596 13.25 11.75C13.25 12.4404 12.6904 13 12 13C11.3096 13 10.75 12.4404 10.75 11.75C10.75 11.0596 11.3096 10.5 12 10.5ZM16.25 10.5C16.9404 10.5 17.5 11.0596 17.5 11.75C17.5 12.4404 16.9404 13 16.25 13C15.5596 13 15 12.4404 15 11.75C15 11.0596 15.5596 10.5 16.25 10.5ZM17.75 4.5H6.25C5.2835 4.5 4.5 5.2835 4.5 6.25V7H19.5V6.25C19.5 5.2835 18.7165 4.5 17.75 4.5Z" fill="#212121"/>
</svg>

<svg xmlns="http://www.w3.org/2000/svg" width="24" height="24"><path d="M17.75 3A3.25 3.25 0 0 1 21 6.25v11.5A3.25 3.25 0 0 1 17.75 21H6.25A3.25 3.25 0 0 1 3 17.75V6.25A3.25 3.25 0 0 1 6.25 3h11.5Zm1.75 5.5h-15v9.25c0 .966.784 1.75 1.75 1.75h11.5a1.75 1.75 0 0 0 1.75-1.75V8.5Zm-11.75 6a1.25 1.25 0 1 1 0 2.5 1.25 1.25 0 0 1 0-2.5Zm4.25 0a1.25 1.25 0 1 1 0 2.5 1.25 1.25 0 0 1 0-2.5Zm-4.25-4a1.25 1.25 0 1 1 0 2.5 1.25 1.25 0 0 1 0-2.5Zm4.25 0a1.25 1.25 0 1 1 0 2.5 1.25 1.25 0 0 1 0-2.5Zm4.25 0a1.25 1.25 0 1 1 0 2.5 1.25 1.25 0 0 1 0-2.5Zm1.5-6H6.25A1.75 1.75 0 0 0 4.5 6.25V7h15v-.75a1.75 1.75 0 0 0-1.75-1.75Z"/></svg>
